X:3
T:Mad John's
C:Chris Armstrong
L:1/8
R:Jig
M:6/8
K:D
Q:3/8=118
[| {g}f2A {g}Adf | {a}gB{G}B {ag}a2g | {a}f2{AGAG}A adf | {g}ec{d}A age | 
{gfg}f2A {g}Adf | {a}gB{G}B {ag}a2g | {a}fda {ef}eca | d{g}d{G}d {g}dag | 
{e}f2A {g}Adf | {a}gB{G}B {ag}a2g | {a}f2{AGAG}A a2{AGAG}A | {g}ec{d}A age |
{gfg}f2A {g}Adf | {g}B{d}G{e}G {gf}g2a | f{g}da {ef}eca | d{g}d{G}d {g}d2 f ||
{ag}a2f {g}dfa | g{a}B{G}B {gf}g2a | f2{AGAG}A adf | {g}ec{d}A age |
{ag}a2f {g}dfa | g{a}B{G}B {gf}g2a | f{g}da {ef}eca | d{g}d{G}d {g}efg |
{ag}a2f {g}dfa | g{a}B{G}B {gf}g2a | f2{AGAG}A a2{AGAG}A | {g}ec{d}A age |
{gfg}f2A {g}Adf | {g}B{d}G{e}G {gf}g3 | {ag}(a3 (a3) [M:9/8] | a3) (g3 g3) | age {g}deg {a}edB [M:2/4] |  {gAGAG}A4 |]

